Betaversie/Icons/thumb-up.svg

﻿<?xml version="1.0" encoding="utf-8"?>
<!DOCTYPE svg PUBLIC "-//W3C//DTD SVG 1.1//EN" "http://www.w3.org/Graphics/SVG/1.1/DTD/svg11.dtd">
<svg xmlns="http://www.w3.org/2000/svg" xmlns:xlink="http://www.w3.org/1999/xlink" version="1.1" baseProfile="full" width="24" height="24" viewBox="0 0 24.00 24.00" enable-background="new 0 0 24.00 24.00" xml:space="preserve">
	<path fill="#000000" fill-opacity="1" stroke-width="0.2" stroke-linejoin="round" d="M 2,10L 5,10C 5.55228,10 6,10.4477 6,11L 6,20C 6,20.5523 5.55228,21 5,21L 2,21C 1.44772,21 1,20.5523 1,20L 1,11C 1,10.4477 1.44772,10 2,10 Z M 2,11L 2,20L 5,20L 5,11L 2,11 Z M 17.7162,19.0251L 20.7173,14.0257C 20.8968,13.7258 21,13.3749 21,13L 21,12C 21,10.8954 20.1046,10 19,10L 13.39,10L 14.8475,4.56069L 14.8524,4.54239C 14.9416,4.20884 14.8553,3.83817 14.5936,3.57646L 8.58502,9.58503L 8.58578,9.58579C 8.22386,9.94772 7.99999,10.4477 7.99999,11L 7.99999,18C 7.99999,19.1046 8.89542,20 9.99999,20L 16,20C 16.7296,20 17.368,19.6093 17.7162,19.0251 Z M 22,13C 22,13.5935 21.8277,14.1467 21.5303,14.6124L 18.6243,19.4548C 18.1123,20.3764 17.129,21 16,21L 10,21C 8.34315,21 7,19.6569 7,18L 7,11C 7,10.1725 7.33503,9.42327 7.87683,8.88052L 14.5936,2.16225L 15.3007,2.86936C 15.8338,3.40242 16.003,4.16153 15.8084,4.83813L 14.6933,9L 19,9C 20.6569,9 22,10.3432 22,12L 22,13 Z "/>
</svg>

<?xml version="1.0" encoding="utf-8"?>
<!-- Generator: Adobe Illustrator 22.0.1, SVG Export Plug-In . SVG Version: 6.00 Build 0)  -->
<svg version="1.1" id="Layer_1" xmlns="http://www.w3.org/2000/svg" xmlns:xlink="http://www.w3.org/1999/xlink" x="0px" y="0px"
	 viewBox="0 0 24 24" style="enable-background:new 0 0 24 24;" xml:space="preserve">
<style type="text/css">
	.st0{fill:#474C4F;}
</style>
<path class="st0" d="M2,10h3c0.6,0,1,0.4,1,1v9c0,0.6-0.4,1-1,1H2c-0.6,0-1-0.4-1-1v-9C1,10.4,1.4,10,2,10z M2,11v9h3v-9H2z
	 M17.7,19l3-5c0.2-0.3,0.3-0.7,0.3-1v-1c0-1.1-0.9-2-2-2h-5.6l1.5-5.4l0,0c0.1-0.3,0-0.7-0.3-1l-6,6l0,0C8.2,9.9,8,10.4,8,11v7
	c0,1.1,0.9,2,2,2h6C16.7,20,17.4,19.6,17.7,19z M22,13c0,0.6-0.2,1.1-0.5,1.6l-2.9,4.8C18.1,20.4,17.1,21,16,21h-6c-1.7,0-3-1.3-3-3
	v-7c0-0.8,0.3-1.6,0.9-2.1l6.7-6.7l0.7,0.7c0.5,0.5,0.7,1.3,0.5,2L14.7,9H19c1.7,0,3,1.3,3,3V13z"/>
</svg>
